img/server.svg

<svg id="_x31_px" enable-background="new 0 0 24 24" height="512" viewBox="0 0 24 24" width="512" xmlns="http://www.w3.org/2000/svg"><path d="m13.5 23h-3c-.552 0-1-.449-1-1v-5h-2.5c-.202 0-.385-.122-.462-.309s-.034-.402.108-.545l5-5c.195-.195.512-.195.707 0l5 5c.143.143.186.358.108.545s-.259.309-.461.309h-2.5v5c0 .551-.448 1-1 1zm-5.293-7h1.793c.276 0 .5.224.5.5v5.5h3v-5.5c0-.276.224-.5.5-.5h1.793l-3.793-3.793z"/><path d="m4.501 16.97c-.019 0-.037-.001-.057-.003-2.533-.281-4.444-2.417-4.444-4.967 0-2.642 2.059-4.811 4.656-4.988.692-3.456 3.777-6.012 7.344-6.012 2.801 0 5.381 1.578 6.653 4.044 3.022.317 5.347 2.878 5.347 5.956 0 2.68-1.796 5.05-4.366 5.762-.268.073-.542-.083-.615-.349-.074-.266.082-.542.348-.615 2.139-.592 3.633-2.566 3.633-4.798 0-2.647-2.063-4.835-4.697-4.981-.185-.01-.348-.121-.426-.288-1.058-2.266-3.364-3.731-5.877-3.731-3.215 0-5.977 2.395-6.425 5.57-.035.246-.246.43-.495.43-2.286 0-4.08 1.794-4.08 4 0 2.04 1.528 3.748 3.556 3.973.274.031.472.278.441.552-.028.256-.245.445-.496.445z"/></svg>

<svg height="512" viewBox="0 0 24 24" width="512" xmlns="http://www.w3.org/2000/svg"><path d="M13.5 23h-3c-.552 0-1-.449-1-1v-5H7a.5.5 0 01-.354-.854l5-5a.5.5 0 01.707 0l5 5A.499.499 0 0117 17h-2.5v5c0 .551-.448 1-1 1zm-5.293-7H10a.5.5 0 01.5.5V22h3v-5.5a.5.5 0 01.5-.5h1.793L12 12.207z"/><path d="M4.501 16.97a.559.559 0 01-.057-.003A4.992 4.992 0 010 12a5.006 5.006 0 014.656-4.988C5.348 3.556 8.433 1 12 1a7.508 7.508 0 016.653 4.044A5.985 5.985 0 0124 11c0 2.68-1.796 5.05-4.366 5.762a.5.5 0 11-.267-.964C21.506 15.206 23 13.232 23 11a4.983 4.983 0 00-4.697-4.981.5.5 0 01-.426-.288A6.503 6.503 0 0012 2C8.785 2 6.023 4.395 5.575 7.57A.5.5 0 015.08 8C2.794 8 1 9.794 1 12a3.992 3.992 0 003.556 3.973.5.5 0 01-.055.997z"/></svg>
